X:1
T:Humility (Goss), LM
T:Humility (Goss), LM
T:John Goss, 1871
T:Public Domain Courtesy of the Cyber Hymnal™
C:John Goss, 1871
Z:Public Domain
Z:Courtesy of the Cyber Hymnal™
%%score ( 1 2 ) ( 3 4 ) ( 5 6 )
L:1/8
Q:1/4=107
M:4/4
K:G
V:1 treble 
V:2 treble 
V:3 treble 
V:4 treble 
V:5 bass 
V:6 bass 
V:1
 G3 A G2 F2 | E3 D D4 | G2 A2 c2 B2 | B3 A A4 | G3 A G2 F2 | E3 D D4 | G2 A2 B2 c2 | A3 G G4 || %8
 [Gd]3 [Gd] [Gc]2 [GB]2 | [DA]2 [DG]2 [DF]4 | [Dd]3 [Gd] [Gc]2 [GB]2 | [EA]2 [DG]2 [DF]4 | %12
 [B,G]3 [B,A] [^CG]2 [DF]2 | E3 D D4 | [Dd]3 [DB] [EG]2 [Gc]2 | [FB]2 [FA]2 G4 |] %16
V:2
 x8 | x8 | x8 | x8 | x8 | x8 | x8 | x8 || x8 | x8 | x8 | x8 | x8 | D2 ^C-C x4 | x8 | x8 |] %16
V:3
 G3 A [CG]2 [DF]2 | E2- ED D4 | G2 A2 c2 B2 | B3 A [FA]4 | G2- GA [CG]2 [DF]2 | E2- ED D4 | %6
 [B,G]2 [CA]2 [DB]2 [Ec]2 | A3 G [B,G]4 || x8 | x8 | x8 | x8 | x8 | x8 | x8 | x8 |] %16
V:4
 B,4 x4 | B,2 C-C B,2 C2 | D4 G4 | G4 x4 | D2 B,2 x4 | G,2 A,2 (B,2 A,2) | x8 | x8 || x8 | x8 | %10
 x8 | x8 | x8 | x8 | x8 | x8 |] %16
V:5
 G,6 [B,,D,]2 | E,2 F,2 G,2 A,2 | [G,B,]2 [F,D]2 [E,E]2 [G,D]2 | D2 ^C2 D2- D2 | G,6 [B,,D,]2 | %5
 E,2 F,2 [F,A,]2 x2 | G,8- | G,2 F,2 [G,,G,]4 || [G,B,]3 [G,B,] [G,E]2 [G,D]2 | %9
 [F,C]2 [G,B,]2 [D,A,]4 | [B,,G,]3 [B,,G,] [C,E]2 [G,,D]2 | [A,,C]2 B,2 [D,A,]4 | %12
 [E,G,]3 [E,G,] [A,,E,]2 [B,,D,]2 | [G,,B,]2 A,G, F,4 | [B,,G,]3 [B,,G,] [C,G,]2 [A,,E]2 | %15
 [D,D]2 [D,C]2 [G,,B,]4 |] %16
V:6
 G,,4 A,,2 x2 | C,4 G,,4 | x8 | D,6 =C,2 | B,,2 G,,2 A,,2 x2 | C,4 G,2 x2 | E,4 D,2 C,2 | D,4 x4 || %8
 x8 | x8 | x8 | x2 (B,,C,) x4 | x8 | x2 A,,2 D,2 C,2 | x8 | x8 |] %16

